X: 131004
T: I LO'E NAE A LADDIE BUT ANE
Q: "Scotch Jig."
R: Jig.
%R: jig
B: James Kerr "Merry Melodies" v.1 p.31 s.0 #4
Z: 2016 John Chambers <jc:trillian.mit.edu>
N: The rhythms of repeats aren't correct; not fixed.
M: 6/8
L: 1/8
K: A
(ucB) |\
vABA Ace | vf3- fga | uecA ABc | uB3- BcB |\
vABA Ace | vf3- fga | ueac BAB | uA3- A2 :|
|: ue |\
vefg aga | vf3- fga | uecA ABc | uB3- BcB |\
vABA Ace | vf3- fga | ueac BAB | uA3- A :|

%%sep 1 1 500
%%sep 1 1 500

